src/pos-icons/call-missed.svg

<svg height="24" viewBox="0 0 24 24" width="24" xmlns="http://www.w3.org/2000/svg"><path d="m19.59 7-7.59 7.59-5.59-5.59h4.59v-2h-8v8h2v-4.59l7 7 9-9"/></svg>

<?xml version="1.0" encoding="UTF-8"?><!DOCTYPE svg PUBLIC "-//W3C//DTD SVG 1.1//EN" "http://www.w3.org/Graphics/SVG/1.1/DTD/svg11.dtd"><svg xmlns="http://www.w3.org/2000/svg" xmlns:xlink="http://www.w3.org/1999/xlink" version="1.1" id="mdi-call-missed" width="24" height="24" viewBox="0 0 24 24"><path d="M19.59,7L12,14.59L6.41,9H11V7H3V15H5V10.41L12,17.41L21,8.41" /></svg>
